X: 1
T: \'O Malh\~ao  [G]
O: Portugal
F: http://www.youtube.com/watch?v=p3wPho12Cgc
F: http://www.youtube.com/watch?v=fTr3RqspAVE
F: http://ifdo.ca/~seymour/runabc/intl.abc
Z: 2012 John Chambers <jc:trillian.mit.edu>
M: 4/4
L: 1/8
K: G
P: Instr.
GG BB dd | "G"~dG GG BB dd \
| "D7"~dF FF AA dd |1 "D7"~dF FF AA dd | "G"~dG \
:|2 "D7"fe dc Bc AB | "G"G2 z[gdBG] .[gdBG]2 .[gdBG]2  | .[gdBG]2 ||
P: Vocal
|: "G"GG G2 FF | "D7"D3 .[dAF] .[dAF]2 .[dAF]2 | .[dAF]2 FF F2 D2 \
|  "G"G3 .[gdB] .[gdB]2 .[gdB]2 | .[gdB]2 :|
|: "G"DD D2 E2 | "D7"D2 FF F2 E2 | D2 DC B,2 A,2 \
|  "G"G,3 .[gdB] .[gdB]2 .[gdB]2 | .[gdB]2 :|

%%sep 1 1 500
%%sep 1 1 500

